src/img/icons/print.svg

<svg width="32" height="32" viewBox="0 0 32 32" fill="none" xmlns="http://www.w3.org/2000/svg">
<path d="M10.0589 28.3695C9.40516 28.3695 8.84561 28.1355 8.38028 27.6674C7.91471 27.1993 7.68192 26.641 7.68192 25.9925V21.9919H4.37703C3.72856 21.9919 3.17028 21.7591 2.70217 21.2935C2.23406 20.8282 2 20.2687 2 19.6149V13.2278C2 12.232 2.3412 11.3943 3.02361 10.7147C3.70577 10.0348 4.54535 9.69489 5.54237 9.69489H26.4576C27.4612 9.69489 28.3026 10.0348 28.9817 10.7147C29.6606 11.3943 30 12.232 30 13.2278V19.6149C30 20.2687 29.7659 20.8282 29.2978 21.2935C28.8297 21.7591 28.2714 21.9919 27.623 21.9919H24.3181V25.9925C24.3181 26.641 24.0853 27.1993 23.6197 27.6674C23.1544 28.1355 22.5948 28.3695 21.9411 28.3695H10.0589ZM4.37703 20.0826H7.68192V19.7843C7.69484 19.1463 7.93219 18.6003 8.39396 18.1463C8.85574 17.6927 9.41074 17.4658 10.0589 17.4658H21.9411C22.5893 17.4658 23.1443 17.6927 23.606 18.1463C24.0678 18.6003 24.3052 19.1463 24.3181 19.7843V20.0826H27.623C27.7593 20.0826 27.8712 20.0388 27.9589 19.9511C28.0465 19.8633 28.0903 19.7512 28.0903 19.6149V13.2221C28.0903 12.7641 27.9339 12.3799 27.6211 12.0696C27.308 11.7596 26.9202 11.6046 26.4576 11.6046H5.54237C5.07983 11.6046 4.69202 11.7615 4.37893 12.0753C4.06609 12.3894 3.90968 12.7736 3.90968 13.2278V19.6149C3.90968 19.7512 3.9535 19.8633 4.04114 19.9511C4.12879 20.0388 4.24075 20.0826 4.37703 20.0826ZM22.4088 9.69489V5.37703C22.4088 5.24075 22.3648 5.12879 22.2769 5.04115C22.1893 4.95325 22.0773 4.9093 21.9411 4.9093H10.0589C9.92267 4.9093 9.81071 4.95325 9.72306 5.04115C9.63517 5.12879 9.59122 5.24075 9.59122 5.37703V9.69489H7.68192V5.37703C7.68192 4.72831 7.91471 4.17002 8.38028 3.70217C8.84561 3.23405 9.40516 3 10.0589 3H21.9411C22.5948 3 23.1544 3.23405 23.6197 3.70217C24.0853 4.17002 24.3181 4.72831 24.3181 5.37703V9.69489H22.4088ZM25.1764 15.3065C25.5455 15.3065 25.861 15.1754 26.1229 14.9133C26.3851 14.6511 26.5161 14.3372 26.5161 13.9717C26.5161 13.6062 26.3851 13.2924 26.1229 13.0302C25.8607 12.7683 25.5469 12.6373 25.1814 12.6373C24.8092 12.6373 24.4937 12.7684 24.2349 13.0306C23.976 13.2927 23.8465 13.6066 23.8465 13.9721C23.8465 14.3376 23.976 14.6515 24.2349 14.9136C24.4937 15.1756 24.8076 15.3065 25.1764 15.3065ZM22.4088 25.9925V19.8429C22.4088 19.7129 22.3648 19.6025 22.2769 19.5115C22.1893 19.4206 22.0773 19.3751 21.9411 19.3751H10.0589C9.92267 19.3751 9.81071 19.4206 9.72306 19.5115C9.63517 19.6025 9.59122 19.7129 9.59122 19.8429V25.9925C9.59122 26.1288 9.63517 26.2407 9.72306 26.3284C9.81071 26.416 9.92267 26.4599 10.0589 26.4599H21.9411C22.0773 26.4599 22.1893 26.416 22.2769 26.3284C22.3648 26.2407 22.4088 26.1288 22.4088 25.9925Z" fill="#131212"/>
</svg>

<svg xmlns="http://www.w3.org/2000/svg" viewBox="0 0 32 32">
  <path fill="currentColor" d="M10.059 28.37a2.282 2.282 0 0 1-1.679-.703 2.293 2.293 0 0 1-.698-1.675v-4H4.377a2.293 2.293 0 0 1-1.675-.698A2.282 2.282 0 0 1 2 19.614v-6.386c0-.996.341-1.834 1.024-2.513.682-.68 1.521-1.02 2.518-1.02h20.916c1.003 0 1.845.34 2.524 1.02.679.68 1.018 1.517 1.018 2.513v6.387c0 .654-.234 1.213-.702 1.679a2.293 2.293 0 0 1-1.675.698h-3.305v4c0 .649-.233 1.207-.698 1.675a2.282 2.282 0 0 1-1.679.702H10.06Zm-5.682-8.287h3.305v-.299c.013-.638.25-1.184.712-1.638a2.29 2.29 0 0 1 1.665-.68H21.94a2.29 2.29 0 0 1 1.665.68c.462.454.7 1 .712 1.638v.299h3.305a.455.455 0 0 0 .336-.132.456.456 0 0 0 .131-.336v-6.393c0-.458-.156-.842-.469-1.152-.313-.31-.7-.465-1.163-.465H5.542c-.462 0-.85.156-1.163.47a1.57 1.57 0 0 0-.47 1.153v6.387a.46.46 0 0 0 .132.336c.088.088.2.132.336.132ZM22.409 9.695V5.377a.454.454 0 0 0-.132-.336.454.454 0 0 0-.336-.132H10.06a.454.454 0 0 0-.336.132.454.454 0 0 0-.132.336v4.318h-1.91V5.377c0-.649.234-1.207.7-1.675A2.282 2.282 0 0 1 10.058 3H21.94c.654 0 1.213.234 1.679.702.465.468.698 1.026.698 1.675v4.318h-1.91Zm2.767 5.611c.37 0 .685-.13.947-.393.262-.262.393-.576.393-.941 0-.366-.13-.68-.393-.942a1.285 1.285 0 0 0-.942-.393 1.28 1.28 0 0 0-.946.394 1.293 1.293 0 0 0-.389.941c0 .366.13.68.389.942.259.262.573.393.941.393ZM22.41 25.993v-6.15a.46.46 0 0 0-.468-.468H10.06a.46.46 0 0 0-.468.468v6.15a.451.451 0 0 0 .468.467h11.88a.455.455 0 0 0 .336-.132.454.454 0 0 0 .132-.335Z"/>
</svg>
